web/assets/img/functions/236-closed.svg

<svg width="144" height="144" viewBox="0 0 144 144" fill="none" xmlns="http://www.w3.org/2000/svg">
    <path d="M52 117H24C22.8954 117 22 116.105 22 115V66.5C22 65.3954 21.1046 64.5 20 64.5H5.0595C3.24617 64.5 2.36878 62.2804 3.692 61.0406L62.1341 6.27983C62.9027 5.5597 64.098 5.559 64.8674 6.27821L86.5 26.5V12.5C86.5 11.3954 87.3954 10.5 88.5 10.5H102C103.105 10.5 104 11.3954 104 12.5V41.6178C104 42.1798 104.236 42.7159 104.651 43.0948L115.5 53"
          stroke="#282828" stroke-width="4" stroke-linecap="round" stroke-linejoin="round"/>
    <path d="M119 93L99.0627 112.842L90 103.823" stroke="#00D151" stroke-width="4" stroke-linecap="round" stroke-linejoin="round"/>
    <path d="M129.524 74.899L104.5 67L79.4764 74.902C77.5916 75.4971 75.9514 76.6425 74.7889 78.1757C73.6263 79.7089 73.0004 81.5518 73 83.443V102.973C73 125.545 101.98 138.01 103.221 138.529L104.336 139L105.495 138.634C106.74 138.238 136 128.704 136 102.973V83.443C136 81.5513 135.375 79.7077 134.212 78.1739C133.049 76.6401 131.409 75.4942 129.524 74.899Z"
          stroke="#282828" stroke-width="4" stroke-linejoin="round"/>
</svg>

<?xml version="1.0" encoding="utf-8"?>
<!-- Generator: Adobe Illustrator 28.2.0, SVG Export Plug-In . SVG Version: 6.00 Build 0)  -->
<svg version="1.1" id="Calque_1" xmlns="http://www.w3.org/2000/svg" xmlns:xlink="http://www.w3.org/1999/xlink" x="0px" y="0px"
	 viewBox="0 0 144 144" style="enable-background:new 0 0 144 144;" xml:space="preserve">
<style type="text/css">
	.st0{fill:none;stroke:#282828;stroke-width:4;stroke-linecap:round;stroke-linejoin:round;}
	.st1{fill:none;stroke:#33B0DF;stroke-width:4;stroke-linecap:round;stroke-linejoin:round;}
	.st2{fill:none;stroke:#282828;stroke-width:4;stroke-linejoin:round;}
</style>
<path class="st0" d="M52,117H24c-1.1,0-2-0.9-2-2V66.5c0-1.1-0.9-2-2-2H5.1c-1.8,0-2.7-2.2-1.4-3.5L62.1,6.3c0.8-0.7,2-0.7,2.7,0
	l21.6,20.2v-14c0-1.1,0.9-2,2-2H102c1.1,0,2,0.9,2,2v29.1c0,0.6,0.2,1.1,0.7,1.5l10.8,9.9"/>
<path class="st1" d="M119,93l-19.9,19.8l-9.1-9"/>
<path class="st2" d="M129.5,74.9l-25-7.9l-25,7.9c-1.9,0.6-3.5,1.7-4.7,3.3c-1.2,1.5-1.8,3.4-1.8,5.3V103c0,22.6,29,35,30.2,35.6
	l1.1,0.5l1.2-0.4c1.2-0.4,30.5-9.9,30.5-35.7V83.4c0-1.9-0.6-3.7-1.8-5.3C133,76.6,131.4,75.5,129.5,74.9z"/>
</svg>
